svg/l/YT.svg

<svg width="32" height="24" viewBox="0 0 32 24" fill="none" xmlns="http://www.w3.org/2000/svg">
<g clip-path="url(#clip0_270_34174)">
<rect width="32" height="24" fill="white"/>
<rect width="32" height="24" fill="white"/>
<path d="M11.0904 21.2289C10.4245 21.4302 9.46517 21.8428 9.08144 22.0742C8.95729 22.1547 8.96858 22.2453 9.16044 22.5874C9.29587 22.8088 9.43131 23 9.45388 23C9.48774 23 9.86018 22.8491 10.2778 22.6579C10.6954 22.4767 11.2289 22.2377 11.4741 22.195C11.6616 22.1623 11.8328 22.1313 11.9388 22.092C11.9815 22.1845 11.9553 22.133 12.033 22.2781C12.1448 22.4867 12.0752 22.482 12.2686 22.5391C12.4724 22.5993 12.9752 22.356 12.9752 22.356C13.562 22.1748 13.8893 22.1547 15.9998 22.1547C18.1103 22.1547 18.4376 22.1748 19.0245 22.366C19.0245 22.366 19.4968 22.5093 19.5575 22.5266C19.6178 22.5438 19.6497 22.5574 19.7134 22.5438C19.7715 22.5313 19.8321 22.4521 19.8588 22.4042C19.8588 22.4042 19.9886 22.1262 20.022 22.0286C20.1344 22.0768 20.3394 22.1396 20.5369 22.195C20.7739 22.2654 21.3043 22.4767 21.7219 22.6579C22.1395 22.8491 22.5119 23 22.5458 23C22.5684 23 22.7038 22.8088 22.8392 22.5874C23.1101 22.1145 23.1327 22.1547 22.1508 21.7019C20.8416 21.0981 19.5324 20.8264 19.4082 21.1182C19.3857 21.1736 19.3665 21.206 19.3355 21.2778C19.2043 21.2508 18.8609 21.1786 18.5166 21.1283C17.4557 20.9572 14.5439 20.9572 13.483 21.1283C13.1388 21.1786 12.9061 21.2626 12.7116 21.3107C12.6015 21.1143 12.6245 21.1924 12.602 21.137C12.5117 20.9358 11.9142 20.9673 11.0904 21.2289H11.0904Z" fill="#DFDFDF"/>
<path d="M12.0495 8.793C12.0267 9.12092 12.0949 9.35287 12.2731 9.52882C12.3526 9.61281 12.4209 9.71278 12.4209 9.71278C12.4209 9.71278 12.3299 9.81276 12.2541 9.88874C12.076 10.0647 12.004 10.2926 12.004 10.5326C12.004 10.7805 12.076 10.9525 12.2693 11.1764C12.2693 11.1764 12.4324 11.2585 12.4284 11.3604C12.4245 11.4622 12.2541 11.5643 12.2541 11.5643C11.9054 11.9722 11.9168 12.4401 12.2806 12.828L12.436 13H16.006H19.5722L19.7466 12.804C20.0838 12.4241 20.0838 12.0122 19.7503 11.5763C19.7503 11.5763 19.5825 11.4566 19.5798 11.3564C19.5771 11.2561 19.739 11.1564 19.739 11.1564C20.0876 10.7165 20.0801 10.3126 19.72 9.88874C19.5571 9.70078 19.5533 9.66479 19.6821 9.57681C19.8906 9.42885 20.0194 8.92896 19.9247 8.62504C19.7845 8.16915 19.1819 7.86522 18.8143 8.06517C18.746 8.10116 18.6096 8.20114 18.5073 8.28512C18.405 8.37309 18.3102 8.44108 18.2913 8.44108C18.2761 8.44108 18.1852 8.3691 18.0904 8.28112C17.7228 7.9492 17.2801 7.90921 16.9125 8.28512C16.9125 8.28512 16.8601 8.48621 16.7829 8.49307C16.7057 8.49992 16.5972 8.31311 16.5972 8.31311C16.222 7.9412 15.7521 7.95719 15.3693 8.3491C15.3693 8.3491 15.3157 8.51282 15.2291 8.49307C15.1426 8.47332 15.0714 8.28112 15.0714 8.28112C14.8478 8.06517 14.7061 8.06917 14.4484 8.06517C14.3001 8.06276 14.0313 8.09885 13.869 8.2202C13.7067 8.34154 13.7353 8.48691 13.698 8.47707C13.6042 8.45233 13.501 8.30111 13.501 8.30111C13.1371 7.97319 12.8453 7.9172 12.4929 8.11316C12.2162 8.26512 12.0722 8.48907 12.0495 8.793Z" fill="#171796"/>
<path d="M12.2849 14.4919C12.2849 14.4919 12.4301 14.5627 12.4251 14.6533C12.4201 14.744 12.2659 14.8344 12.2659 14.8344C12.1787 14.9328 12.0839 15.0745 12.0536 15.1454C11.9323 15.4485 12.0233 15.8539 12.2621 16.0862C12.4062 16.2318 12.41 16.2909 12.2735 16.4641C12.2128 16.5389 12.1408 16.6451 12.1143 16.7003C11.8299 17.2592 12.2545 17.9599 12.8838 17.9599C13.134 17.9599 13.3236 17.8772 13.4942 17.6883C13.6307 17.5387 13.7027 17.5348 13.824 17.6686C14.0022 17.8733 14.2372 17.9993 14.4343 17.9993C14.6656 17.9993 14.8096 17.9245 15.0447 17.6922C15.0447 17.6922 15.1378 17.5102 15.2229 17.5112C15.3079 17.5121 15.3859 17.6962 15.3859 17.6962C15.7384 18.0898 16.0948 18.1016 16.5687 17.7277C16.5687 17.7277 16.6728 17.5761 16.762 17.5781C16.8512 17.58 16.9288 17.7355 16.9288 17.7355C17.1373 17.9245 17.2927 17.9993 17.4975 17.9993C17.7022 17.9993 17.8538 17.9166 18.0926 17.6726C18.0926 17.6726 18.2159 17.4874 18.2898 17.4757C18.3636 17.4641 18.4414 17.6174 18.4414 17.6174C18.7333 17.8891 18.8925 17.9757 19.1048 17.9757C19.3247 17.9757 19.4801 17.9009 19.7 17.6962C19.9047 17.5033 20.0147 17.2789 19.9881 17.0939C19.9616 16.8931 19.7872 16.5271 19.6583 16.4011C19.6583 16.4011 19.5291 16.3898 19.5484 16.2909C19.5677 16.1919 19.719 16.0901 19.719 16.0901C20.0905 15.6374 20.0943 15.2871 19.7266 14.8383C19.7266 14.8383 19.573 14.7496 19.5749 14.6494C19.5769 14.5491 19.7341 14.4486 19.7341 14.4486C20.0905 14.0117 20.0867 13.6062 19.7266 13.2086L19.5332 13L15.9849 13.0039L12.4365 13.0079L12.2773 13.1929C11.9058 13.622 11.9095 14.0589 12.2849 14.4919Z" fill="#D42E12"/>
<path fill-rule="evenodd" clip-rule="evenodd" d="M17.8206 13.6216C17.9924 13.6216 18.1353 13.7386 18.1649 13.8929L18.1706 13.9524V14.5672L18.9061 14.1767C19.0689 14.0902 19.2718 14.1506 19.3593 14.3115C19.437 14.4545 19.3974 14.6288 19.2733 14.7265L19.2228 14.7593L18.6063 15.0867L19.2228 15.414L19.2733 15.4468C19.3974 15.5445 19.437 15.7188 19.3593 15.8619C19.2718 16.0228 19.0689 16.0831 18.9061 15.9967L18.1706 15.6062V16.2909C18.1706 16.4736 18.0139 16.6216 17.8206 16.6216C17.6488 16.6216 17.5059 16.5047 17.4762 16.3504L17.4706 16.2909V15.6896L16.8922 15.9967C16.7294 16.0831 16.5265 16.0228 16.4391 15.8619C16.3613 15.7188 16.401 15.5445 16.5251 15.4468L16.5755 15.414L17.1921 15.0867L16.5755 14.7593L16.5251 14.7265C16.401 14.6288 16.3613 14.4545 16.4391 14.3115C16.5265 14.1506 16.7294 14.0902 16.8922 14.1767L17.4706 14.4837V13.9524C17.4706 13.7697 17.6273 13.6216 17.8206 13.6216Z" fill="#E9D315"/>
<path fill-rule="evenodd" clip-rule="evenodd" d="M14.4214 13.6216C14.5932 13.6216 14.7361 13.7386 14.7658 13.8929L14.7714 13.9524V14.5672L15.507 14.1767C15.6698 14.0902 15.8726 14.1506 15.9601 14.3115C16.0378 14.4545 15.9982 14.6288 15.8741 14.7265L15.8237 14.7593L15.2071 15.0867L15.8237 15.414L15.8741 15.4468C15.9982 15.5445 16.0378 15.7188 15.9601 15.8619C15.8726 16.0228 15.6698 16.0831 15.507 15.9967L14.7714 15.6062V16.2909C14.7714 16.4736 14.6147 16.6216 14.4214 16.6216C14.2496 16.6216 14.1067 16.5047 14.077 16.3504L14.0714 16.2909V15.6896L13.493 15.9967C13.3302 16.0831 13.1274 16.0228 13.0399 15.8619C12.9622 15.7188 13.0018 15.5445 13.1259 15.4468L13.1763 15.414L13.7929 15.0867L13.1763 14.7593L13.1259 14.7265C13.0018 14.6288 12.9622 14.4545 13.0399 14.3115C13.1274 14.1506 13.3302 14.0902 13.493 14.1767L14.0714 14.4837V13.9524C14.0714 13.7697 14.2281 13.6216 14.4214 13.6216Z" fill="#E9D315"/>
<path d="M10.8528 12.8565H11.0028V12.8565C11.0028 12.8572 11.0028 12.8804 11.0028 12.9231C10.9181 12.9205 10.8548 12.8586 10.8529 12.8567L10.8528 12.8566L10.8528 12.8568L10.8528 12.8573L10.8528 12.8597L10.8528 12.8688L10.8528 12.9047L10.8529 13.0419L10.8532 13.5411C10.8535 13.9597 10.854 14.5306 10.8547 15.1405C10.856 16.3571 10.8581 17.7289 10.8614 18.3532C10.855 18.4802 10.8907 18.5758 10.9623 18.6556C10.994 18.691 11.0303 18.7206 11.0633 18.7461C11.0789 18.7581 11.0926 18.7684 11.1062 18.7786C11.1255 18.7931 11.1444 18.8072 11.1675 18.8256L11.2607 18.708L11.1675 18.8256C11.2571 18.8966 11.411 18.9527 11.588 18.9985C11.7725 19.0461 12.0059 19.0882 12.274 19.1199C12.8088 19.1833 13.4905 19.2071 14.2134 19.1503C14.5191 19.1533 14.743 19.2126 14.9143 19.2955C15.087 19.3789 15.2137 19.4899 15.3205 19.6054C15.3745 19.6638 15.4226 19.7226 15.4705 19.7811L15.4733 19.7845C15.5191 19.8405 15.5664 19.8983 15.6147 19.9488C15.7135 20.0521 15.84 20.15 16.0186 20.15C16.198 20.15 16.323 20.0512 16.4192 19.9467C16.467 19.8947 16.5132 19.8353 16.5576 19.7781L16.5605 19.7742C16.6051 19.7167 16.6496 19.6594 16.6995 19.6022C16.8002 19.4868 16.919 19.3768 17.0819 19.2942C17.2441 19.2119 17.4581 19.1526 17.7539 19.1502C18.5723 19.1628 19.2696 19.1429 19.7939 19.0937C20.0559 19.0691 20.2781 19.0369 20.452 18.9968C20.6161 18.9589 20.7628 18.9086 20.8522 18.8323L20.8524 18.8321L20.8593 18.8265C20.8651 18.8217 20.873 18.815 20.8826 18.8067C20.9016 18.7901 20.9274 18.7664 20.9551 18.7379C21.006 18.6854 21.08 18.5996 21.1133 18.5018C21.1444 18.4108 21.1525 18.3283 21.1528 18.2682C21.153 18.2381 21.1512 18.213 21.1492 18.1947C21.1485 18.1884 21.1478 18.1829 21.1471 18.1782V12.8565V7V6.85H20.9971H16H11.0028H10.8528V7V12.8565Z" stroke="black" stroke-width="0.3"/>
<path d="M14.8687 9.86572C14.6003 10.3655 14.5889 10.5898 14.812 10.9902C14.9859 11.2978 15.19 11.4932 15.4698 11.6182C16.1995 11.9481 17.1333 11.7046 17.5 11.0895C17.7268 10.7115 17.7003 10.0804 17.4508 9.80485L17.3828 9.73117L17.3185 9.94902C17.2278 10.2598 17.137 10.4168 16.9556 10.5834C16.6153 10.8941 16.1465 10.9646 15.6626 10.7724C15.2883 10.6218 15.1371 10.4136 14.9972 9.83368L14.9632 9.68951L14.8687 9.86572L14.8687 9.86572Z" fill="white"/>
<path fill-rule="evenodd" clip-rule="evenodd" d="M18.4785 3.5C18.4785 4.36593 17.8551 5 16.9781 5C16.1011 5 15.483 4.36593 15.483 3.5C15.483 2.62934 16.1011 2 16.9781 2C17.8551 2 18.4785 2.62934 18.4785 3.5ZM6.52302 4.95268V2.93218L7.41585 4.95268H7.80679L8.67849 2.93218V4.95268H9.20679V2.04732H8.59396L7.6166 4.28076L6.62868 2.04732H6V4.95268H6.52302ZM10.2264 4.95268L10.5592 4.14827H11.8008L12.1336 4.95268H12.6936L11.4468 2.04732H10.9185L9.6717 4.95268H10.2264ZM11.1774 2.64827L10.7336 3.7224H11.6211L11.1774 2.64827ZM14.2521 4.95268V3.79338L15.4302 2.04732H14.8491L13.9932 3.34858L13.1321 2.04732H12.5351L13.7079 3.79338V4.95268H14.2521ZM16.9781 4.55994C16.4075 4.55994 16.0377 4.11514 16.0377 3.5C16.0377 2.88486 16.4075 2.44006 16.9781 2.44006C17.5487 2.44006 17.9238 2.88486 17.9238 3.5C17.9238 4.11514 17.5487 4.55994 16.9781 4.55994ZM20.2642 2.48265V4.95268H19.7147V2.48265H18.637V2.04732H21.3419V2.48265H20.2642ZM23.286 4.95268V2.48265H24.3638V2.04732H21.6589V2.48265H22.7366V4.95268H23.286ZM27 4.51262V4.95268H24.8815V2.04732H27V2.48265H25.4204V3.24921H26.8521V3.67981H25.4204V4.51262H27Z" fill="#FF2500"/>
<path fill-rule="evenodd" clip-rule="evenodd" d="M26.7765 18.8001C26.7765 18.8001 26.4364 18.1304 27.2963 17.7998C28.1562 17.4693 28.5765 17.9006 28.9553 18.3009C29.3341 18.7012 29.2925 19.9094 29.2925 19.9094L28.3565 21.4064L25.4854 22L24.3414 21.4064L23 18.8001L23.1002 16.2414C23.1002 16.2414 23.2359 15.2613 23.2359 15.0584C23.2359 14.8555 23.8591 13.2829 23.8591 13.2829L24.4492 12.6984L26.1181 11.8105L26.9039 11.418L27.8797 10.1846L27.7718 9.20275L26.6597 10.6193H25.7177L24.7372 11.03L24.3414 11.4032L23.8591 11.418L23.6701 11.03L24.1966 10.1846L24.9919 9.38392L24.6261 8.7068L25.1676 8.46013L25.0635 8.08688L25.6645 8.46013L26.1181 8.08688L26.2045 7.7436L25.1676 7.18794C25.1676 7.18794 26.1821 6.76227 26.6597 6.80669C27.1373 6.85111 27.5879 7.41306 27.5879 7.41306L28.9553 7.18794C28.9553 7.18794 28.5892 8.08688 28.7075 8.08688C28.8258 8.08688 29.5685 8.08688 29.5685 8.08688L29.2925 9.20275H30.3514L29.5685 10.0624L30.1797 10.3975L29.2498 11.03L30.1797 11.6557L29.3151 12.2236L29.8022 13.1653L30.5688 12.6984L31 13.2829L30.3514 14.7224L29.2925 15.4736L28.2837 15.7278L27.2963 15.9844L26.9039 16.2414L26.6597 15.2565L24.9919 16.4002L24.1256 18.1937L24.3806 19.8233L24.9919 20.6577L26.1181 21.061L27.5879 20.7848L28.3565 19.8496L28.5401 18.8952C28.5401 18.8952 28.0947 18.2471 27.7718 18.3009C27.4488 18.3547 26.7765 18.8001 26.7765 18.8001Z" fill="#DFDFDF" stroke="black" stroke-width="0.3"/>
<path d="M25.0822 12.2246L25.0453 12.6229C26.1996 12.7299 26.9633 12.6723 27.3622 12.4238L27.4421 12.3676L27.1932 12.0545C26.9503 12.2476 26.3171 12.3195 25.319 12.2445L25.0822 12.2246Z" fill="black"/>
<path d="M23.7437 13.3788L23.7068 13.7771C24.8611 13.8841 25.6248 13.8264 26.0237 13.578L26.1036 13.5218L25.8547 13.2087C25.6118 13.4018 24.9786 13.4737 23.9805 13.3987L23.7437 13.3788Z" fill="black"/>
<path d="M23.422 14.455L23.3556 14.8494C24.0356 14.9638 24.4624 14.9113 24.6062 14.6138L24.6362 14.5343L24.2514 14.4248C24.2314 14.4953 24.0156 14.5373 23.5766 14.4785L23.422 14.455Z" fill="black"/>
<path fill-rule="evenodd" clip-rule="evenodd" d="M25.75 9.5C25.6119 9.5 25.5 9.38807 25.5 9.25C25.5 9.11193 25.6119 9 25.75 9C25.8881 9 26 9.11193 26 9.25C26 9.38807 25.8881 9.5 25.75 9.5Z" fill="black"/>
<path fill-rule="evenodd" clip-rule="evenodd" d="M5.22353 18.8001C5.22353 18.8001 5.56358 18.1304 4.70366 17.7998C3.84375 17.4693 3.42345 17.9006 3.04469 18.3009C2.66592 18.7012 2.70754 19.9094 2.70754 19.9094L3.64348 21.4064L6.51462 22L7.65865 21.4064L9 18.8001L8.89977 16.2414C8.89977 16.2414 8.76409 15.2613 8.76409 15.0584C8.76409 14.8555 8.14093 13.2829 8.14093 13.2829L7.55083 12.6984L5.88193 11.8105L5.09607 11.418L4.12029 10.1846L4.22825 9.20275L5.3403 10.6193H6.28226L7.26276 11.03L7.65865 11.4032L8.14093 11.418L8.32989 11.03L7.80336 10.1846L7.00806 9.38392L7.37387 8.7068L6.83237 8.46013L6.93655 8.08688L6.33551 8.46013L5.88193 8.08688L5.79552 7.7436L6.83237 7.18794C6.83237 7.18794 5.81789 6.76227 5.3403 6.80669C4.86272 6.85111 4.41214 7.41306 4.41214 7.41306L3.04469 7.18794C3.04469 7.18794 3.41078 8.08688 3.29247 8.08688C3.17416 8.08688 2.43146 8.08688 2.43146 8.08688L2.70754 9.20275H1.64862L2.43146 10.0624L1.82034 10.3975L2.75017 11.03L1.82034 11.6557L2.68488 12.2236L2.19779 13.1653L1.43118 12.6984L1 13.2829L1.64862 14.7224L2.70754 15.4736L3.71632 15.7278L4.70366 15.9844L5.09607 16.2414L5.3403 15.2565L7.00806 16.4002L7.87441 18.1937L7.61938 19.8233L7.00806 20.6577L5.88193 21.061L4.41214 20.7848L3.64348 19.8496L3.45994 18.8952C3.45994 18.8952 3.90528 18.2471 4.22825 18.3009C4.55122 18.3547 5.22353 18.8001 5.22353 18.8001Z" fill="#DFDFDF" stroke="black" stroke-width="0.3"/>
<path d="M6.91778 12.2246L6.95472 12.6229C5.80044 12.7299 5.03673 12.6723 4.63779 12.4238L4.55787 12.3676L4.8068 12.0545C5.04967 12.2476 5.68287 12.3195 6.68098 12.2445L6.91778 12.2246Z" fill="black"/>
<path d="M8.25629 13.3788L8.29322 13.7771C7.13894 13.8841 6.37523 13.8264 5.97629 13.578L5.89637 13.5218L6.1453 13.2087C6.38817 13.4018 7.02137 13.4737 8.01948 13.3987L8.25629 13.3788Z" fill="black"/>
<path d="M8.57804 14.455L8.64436 14.8494C7.96436 14.9638 7.5376 14.9113 7.39385 14.6138L7.36382 14.5343L7.74856 14.4248C7.76861 14.4953 7.98436 14.5373 8.42339 14.4785L8.57804 14.455Z" fill="black"/>
<path fill-rule="evenodd" clip-rule="evenodd" d="M6.25 9.5C6.38807 9.5 6.5 9.38807 6.5 9.25C6.5 9.11193 6.38807 9 6.25 9C6.11193 9 6 9.11193 6 9.25C6 9.38807 6.11193 9.5 6.25 9.5Z" fill="black"/>
</g>
<defs>
<clipPath id="clip0_270_34174">
<rect width="32" height="24" fill="white"/>
</clipPath>
</defs>
</svg>

<svg width="32" height="24" fill="none" xmlns="http://www.w3.org/2000/svg">
  <path fill="#fff" d="M0 0h32v24H0z"/>
  <path d="M11.09 21.229c-.665.201-1.625.614-2.009.845-.124.08-.112.171.08.513.135.222.27.413.293.413.034 0 .406-.15.824-.342.417-.181.95-.42 1.196-.463a3.16 3.16 0 00.465-.103c.043.093.016.041.094.186.112.209.042.204.236.261.203.06.706-.183.706-.183.587-.181.914-.201 3.025-.201 2.11 0 2.438.02 3.024.211 0 0 .473.143.534.16.06.018.092.031.155.018.058-.013.12-.092.146-.14 0 0 .13-.278.163-.375.112.048.317.11.515.166.237.07.767.282 1.185.463.418.191.79.342.824.342.022 0 .158-.191.293-.413.271-.473.294-.432-.688-.885-1.31-.604-2.619-.876-2.743-.584-.022.056-.042.088-.073.16-.13-.027-.474-.1-.818-.15-1.061-.17-3.973-.17-5.034 0-.344.05-.577.135-.771.183-.11-.197-.088-.119-.11-.174-.09-.201-.688-.17-1.512.092z" fill="#DFDFDF"/>
  <path d="M12.05 8.793c-.023.328.045.56.223.736.08.084.148.184.148.184s-.091.1-.167.176a.876.876 0 00-.25.644c0 .248.072.42.265.643 0 0 .163.082.16.184-.005.102-.175.204-.175.204-.349.408-.337.876.027 1.264l.155.172h7.136l.175-.196c.337-.38.337-.792.003-1.228 0 0-.168-.12-.17-.22-.003-.1.159-.2.159-.2.349-.44.341-.843-.019-1.267-.163-.188-.167-.224-.038-.312.209-.148.337-.648.243-.952-.14-.456-.743-.76-1.11-.56a2.448 2.448 0 00-.308.22c-.102.088-.197.156-.216.156-.015 0-.106-.072-.2-.16-.368-.332-.81-.372-1.178.004 0 0-.053.201-.13.208-.077.007-.186-.18-.186-.18-.375-.372-.845-.356-1.228.036 0 0-.053.164-.14.144-.086-.02-.158-.212-.158-.212-.223-.216-.365-.212-.623-.216-.148-.002-.417.034-.579.155-.162.122-.134.267-.171.257-.094-.025-.197-.176-.197-.176-.364-.328-.656-.384-1.008-.188a.798.798 0 00-.444.68z" fill="#171796"/>
  <path d="M12.285 14.492s.145.07.14.161c-.005.091-.16.181-.16.181a1.49 1.49 0 00-.211.311.912.912 0 00.208.941c.144.146.148.205.011.378-.06.075-.132.181-.159.236-.284.56.14 1.26.77 1.26.25 0 .44-.083.61-.272.137-.15.209-.153.33-.02.178.205.413.331.61.331.232 0 .376-.075.61-.307 0 0 .094-.182.179-.18.085 0 .163.184.163.184.352.394.709.406 1.183.032 0 0 .104-.152.193-.15.09.002.167.157.167.157.208.19.364.264.569.264.204 0 .356-.082.595-.326 0 0 .123-.186.197-.197.074-.012.151.141.151.141.292.272.451.359.664.359.22 0 .375-.075.595-.28.205-.193.315-.417.288-.602-.026-.2-.2-.567-.33-.693 0 0-.129-.011-.11-.11.02-.1.171-.2.171-.2.371-.454.375-.804.008-1.253 0 0-.154-.088-.152-.189.002-.1.16-.2.16-.2.355-.437.352-.843-.008-1.24L19.533 13l-3.548.004-3.548.004-.16.185c-.371.429-.367.866.008 1.299z" fill="#D42E12"/>
  <path fill-rule="evenodd" clip-rule="evenodd" d="M17.82 13.622c.172 0 .315.117.345.27l.006.06v.615l.735-.39a.337.337 0 01.453.135.328.328 0 01-.086.415l-.05.032-.617.328.617.327.05.033a.328.328 0 01.086.415.337.337 0 01-.453.135l-.735-.39v.684a.34.34 0 01-.35.33.345.345 0 01-.345-.27l-.005-.06v-.601l-.579.307a.337.337 0 01-.453-.135.328.328 0 01.086-.415l.05-.033.617-.327-.616-.328-.05-.033a.328.328 0 01-.087-.415.337.337 0 01.453-.134l.579.307v-.532a.34.34 0 01.35-.33zm-3.399 0c.172 0 .315.117.345.27l.005.06v.615l.736-.39a.337.337 0 01.453.135.328.328 0 01-.086.415l-.05.032-.617.328.617.327.05.033a.328.328 0 01.086.415.337.337 0 01-.453.135l-.736-.39v.684a.34.34 0 01-.35.33.345.345 0 01-.344-.27l-.006-.06v-.601l-.578.307a.337.337 0 01-.453-.135.328.328 0 01.086-.415l.05-.033.617-.327-.617-.328-.05-.033a.328.328 0 01-.086-.415.337.337 0 01.453-.134l.578.307v-.532a.34.34 0 01.35-.33z" fill="#E9D315"/>
  <path d="M10.853 12.857h.15v.066a.247.247 0 01-.15-.066h0v.685a3834.43 3834.43 0 00.008 4.811.397.397 0 00.101.303.745.745 0 00.144.123l.062.047.093-.118-.093.118c.09.07.243.127.42.172.185.048.418.09.686.122.535.063 1.217.087 1.94.03.305.003.529.063.7.146.173.083.3.194.406.31.054.058.103.117.15.175l.003.004c.046.055.093.113.142.164.098.103.225.201.404.201.179 0 .304-.099.4-.203.048-.052.094-.112.139-.169l.003-.004c.044-.057.089-.115.139-.172.1-.115.219-.225.382-.308.162-.082.376-.141.672-.144a19.64 19.64 0 002.04-.056c.262-.025.484-.057.658-.097.164-.038.31-.088.4-.165h0l.007-.006a1.486 1.486 0 00.096-.088.68.68 0 00.158-.236.737.737 0 00.034-.324V6.85H10.853v6.007z" stroke="#000" stroke-width=".3"/>
  <path d="M14.869 9.866c-.269.5-.28.724-.057 1.124.174.308.378.503.658.628.73.33 1.663.087 2.03-.529.227-.378.2-1.009-.05-1.284l-.067-.074-.064.218c-.091.31-.182.468-.363.634-.34.311-.81.382-1.293.19-.375-.151-.526-.36-.666-.94l-.034-.143-.094.176z" fill="#fff"/>
  <path fill-rule="evenodd" clip-rule="evenodd" d="M18.479 3.5c0 .866-.624 1.5-1.5 1.5-.878 0-1.496-.634-1.496-1.5 0-.87.618-1.5 1.495-1.5.877 0 1.5.63 1.5 1.5zM6.523 4.953v-2.02l.893 2.02h.39l.872-2.02v2.02h.529V2.047h-.613l-.977 2.234-.988-2.234H6v2.906h.523zm3.703 0l.333-.805h1.242l.333.805h.56l-1.247-2.906h-.528L9.671 4.953h.554zm.951-2.305l-.443 1.074h.887l-.444-1.074zm3.075 2.305v-1.16l1.178-1.746h-.58l-.857 1.302-.86-1.302h-.598l1.173 1.746v1.16h.544zm2.726-.393c-.57 0-.94-.445-.94-1.06s.37-1.06.94-1.06.946.445.946 1.06-.375 1.06-.946 1.06zm3.286-2.077v2.47h-.55v-2.47h-1.077v-.436h2.705v.436h-1.078zm3.022 2.47v-2.47h1.078v-.436h-2.705v.436h1.078v2.47h.549zM27 4.513v.44h-2.119V2.047H27v.436h-1.58v.766h1.432v.43H25.42v.834H27z" fill="#FF2500"/>
  <path fill-rule="evenodd" clip-rule="evenodd" d="M26.776 18.8s-.34-.67.52-1c.86-.33 1.28.1 1.66.5.378.401.337 1.61.337 1.61l-.936 1.496-2.872.594-1.144-.594L23 18.8l.1-2.559s.136-.98.136-1.183c0-.203.623-1.775.623-1.775l.59-.585 1.67-.888.785-.392.976-1.233-.108-.982-1.112 1.416h-.942l-.98.411-.397.373-.482.015-.189-.388.527-.845.795-.801-.366-.677.542-.247-.104-.373.6.373.454-.373.087-.343-1.037-.556s1.014-.426 1.492-.381c.477.044.928.606.928.606l1.367-.225s-.366.899-.247.899h.86l-.276 1.116h1.06l-.784.86.612.335-.93.632.93.626-.865.568.487.941.767-.467.431.585-.649 1.44-1.058.75-1.01.255-.987.256-.392.257-.244-.984-1.668 1.143-.866 1.794.255 1.63.61.834 1.127.403 1.47-.276.768-.935.184-.955s-.445-.648-.768-.594c-.323.054-.995.5-.995.5z" fill="#DFDFDF" stroke="#000" stroke-width=".3"/>
  <path d="M25.082 12.225l-.037.398c1.155.107 1.918.05 2.317-.2l.08-.055-.249-.313c-.243.193-.876.264-1.874.19l-.237-.02zm-1.338 1.154l-.037.398c1.154.107 1.918.05 2.317-.199l.08-.056-.25-.313c-.242.193-.875.265-1.873.19l-.237-.02zm-.322 1.076l-.066.394c.68.115 1.106.062 1.25-.235l.03-.08-.385-.11c-.02.071-.235.113-.674.055l-.155-.024z" fill="#000"/>
  <path fill-rule="evenodd" clip-rule="evenodd" d="M25.75 9.5a.25.25 0 110-.5.25.25 0 010 .5z" fill="#000"/>
  <path fill-rule="evenodd" clip-rule="evenodd" d="M5.224 18.8s.34-.67-.52-1c-.86-.33-1.28.1-1.66.5-.378.401-.336 1.61-.336 1.61l.935 1.496L6.515 22l1.144-.594L9 18.8l-.1-2.559s-.136-.98-.136-1.183c0-.203-.623-1.775-.623-1.775l-.59-.585-1.67-.888-.785-.392-.976-1.233.108-.982 1.112 1.416h.942l.98.411.397.373.482.015.189-.388-.527-.845-.795-.801.366-.677-.542-.247.105-.373-.601.373-.454-.373-.086-.343 1.036-.556s-1.014-.426-1.492-.381c-.477.044-.928.606-.928.606l-1.367-.225s.366.899.247.899h-.86l.276 1.116h-1.06l.783.86-.61.335.93.632-.93.626.864.568-.487.941-.767-.467-.431.585.649 1.44 1.059.75 1.008.255.988.256.392.257.244-.984L7.008 16.4l.866 1.794-.255 1.63-.61.834-1.127.403-1.47-.276-.769-.935-.183-.955s.445-.648.768-.594c.323.054.996.5.996.5z" fill="#DFDFDF" stroke="#000" stroke-width=".3"/>
  <path d="M6.918 12.225l.037.398c-1.155.107-1.918.05-2.317-.2l-.08-.055.249-.313c.243.193.876.264 1.874.19l.237-.02zm1.338 1.154l.037.398c-1.154.107-1.918.05-2.317-.199l-.08-.056.25-.313c.242.193.875.265 1.873.19l.237-.02zm.322 1.076l.066.394c-.68.115-1.106.062-1.25-.235l-.03-.08.385-.11c.02.071.235.113.674.055l.155-.024z" fill="#000"/>
  <path fill-rule="evenodd" clip-rule="evenodd" d="M6.25 9.5a.25.25 0 100-.5.25.25 0 000 .5z" fill="#000"/>
</svg>
